svg/dot_favicon.svg

<svg width="23" height="37" viewBox="0 0 23 37" fill="none" xmlns="http://www.w3.org/2000/svg">
<path d="M11.85 36.8C7.08333 36.8 3.91667 34.8 2.35 30.8C0.783333 26.7667 0 22.45 0 17.85C0 13.4167 0.6 9.86667 1.8 7.2C3.03333 4.53333 4.51667 2.66667 6.25 1.6C8.01667 0.533334 9.76667 0 11.5 0C14.8333 0 17.3333 0.966667 19 2.9C20.6667 4.8 21.7333 7.06667 22.2 9.7C22.6667 12.3 22.9 15.25 22.9 18.55C22.9 21.2167 22.5 23.9667 21.7 26.8C20.9 29.6 19.6667 31.9667 18 33.9C16.3333 35.8333 14.2833 36.8 11.85 36.8ZM11.45 24.1C12.35 24.1 13.0167 23.6 13.45 22.6C13.8833 21.6 14.1 20.4 14.1 19C14.1 17.6667 13.8833 16.5 13.45 15.5C13.05 14.5 12.5 14 11.8 14C10.9667 14 10.3333 14.5833 9.9 15.75C9.5 16.8833 9.3 18.1167 9.3 19.45C9.3 20.8167 9.43333 21.9333 9.7 22.8C9.96667 23.6667 10.55 24.1 11.45 24.1Z" fill="#1E5FD6"/>
</svg>

<?xml version="1.0" encoding="UTF-8"?>
<svg id="Layer_1" xmlns="http://www.w3.org/2000/svg" version="1.1" viewBox="0 0 23 37">
  <!-- Generator: Adobe Illustrator 30.1.0, SVG Export Plug-In . SVG Version: 2.1.1 Build 136)  -->
  <defs>
    <style>
      .st0 {
        fill: #04389e;
      }
    </style>
  </defs>
  <path class="st0" d="M11.85,36.8c-4.77,0-7.93-2-9.5-6C.78,26.77,0,22.45,0,17.85s.6-7.98,1.8-10.65c1.23-2.67,2.72-4.53,4.45-5.6,1.77-1.07,3.52-1.6,5.25-1.6,3.33,0,5.83.97,7.5,2.9,1.67,1.9,2.73,4.17,3.2,6.8.47,2.6.7,5.55.7,8.85,0,2.67-.4,5.42-1.2,8.25-.8,2.8-2.03,5.17-3.7,7.1-1.67,1.93-3.72,2.9-6.15,2.9ZM11.45,24.1c.9,0,1.57-.5,2-1.5s.65-2.2.65-3.6-.22-2.5-.65-3.5c-.4-1-.95-1.5-1.65-1.5-.83,0-1.47.58-1.9,1.75-.4,1.13-.6,2.37-.6,3.7s.13,2.48.4,3.35c.27.87.85,1.3,1.75,1.3Z"/>
</svg>
